static/images/icon-chevron-down.svg

<svg viewBox="0 0 28 28" xmlns="http://www.w3.org/2000/svg"><path clip-rule="evenodd" d="m19.3667 10.3998-5.3665 4.3171-5.35639-4.477c-.29616-.2465-.62498-.30303-.98645-.1696-.36148.1334-.57474.39-.6398.7697-.06506.3798.05064.6927.3471.9388l5.99604 4.9967c.423.3478.8461.3478 1.2691 0l5.996-4.8268c.216-.1734.3386-.3979.3679-.6733.0293-.2755-.0434-.5207-.218-.7357-.1749-.2144-.4001-.3353-.6755-.3626-.2753-.0273-.5198.0469-.7335.2227z"/></svg>

<svg viewBox="0 0 28 28" xmlns="http://www.w3.org/2000/svg">
<path clip-rule="evenodd" d="M19.3667 10.3998L14.0002 14.7169L8.64381 10.2399C8.34765 9.9934 8.01883 9.93687 7.65736 10.0703C7.29588 10.2037 7.08262 10.4603 7.01756 10.84C6.9525 11.2198 7.0682 11.5327 7.36466 11.7788L13.3607 16.7755C13.7837 17.1233 14.2068 17.1233 14.6298 16.7755L20.6258 11.9487C20.8418 11.7753 20.9644 11.5508 20.9937 11.2754C21.023 10.9999 20.9503 10.7547 20.7757 10.5397C20.6008 10.3253 20.3756 10.2044 20.1002 10.1771C19.8249 10.1498 19.5804 10.224 19.3667 10.3998H19.3667Z" />
</svg>
